X:1
T:Trop plus que heureux
T:Michel Le Hugier
T:Source : Livre IX de chansons nouvelles à 4 parties---Paris---P.Attaingnant---1540. Editor : André Vierendeels (21/06/18) Notes : Original clefs : C1, C3, C4, F3 Original note values have been halved Editorial accidentals above the staff
T:Trop plus que heureux
T:©
T:©
T:©
C:Michel Le Hugier
Z:©
%%score [ 1 [ 2 3 ] 4 ]
L:1/8
Q:1/4=120
M:2/2
K:C
V:1 treble nm="Soprano" snm="S"
V:2 treble-8 nm="Tenor 1" snm="T 1"
V:3 treble-8 nm="Tenor 2" snm="T 2"
V:4 treble-8 nm="Tenor 3" snm="T 3"
V:1
 B8 | d4 c4 | B2 d3 cBA | B4 A4 | z2 d2 d2 d2 | A2 c3 BAG | F2 A3 GFE |"^#" D2 G4 F2 | G2 B2 d4 | %9
w: Trop|plus qu'heu-|reux, _ _ _ _|_ _|sont les a-|mantz par- * * *|||faitz, qui sont|
 c4 B2 d2- | dcBA B4 | A4 z2 d2 | d2 d2 A2 c2- | cBAG F2 A2- | AGFE D2 G2- | G2 F2 G4 | %16
w: si bien _|_ _ _ _ _|* da-|mours en- tre las-|||* * sez,|
 z2 G2 A2 B2 | c2 B2 G2 A2 | BABc d3 c/B/ | A2 B3 A d2- | d2 c2 d2 G2 | A2 B2 c2 BA | B4 z4 | %23
w: que sans ia-|mais d'ay- mer es-|tre _ _ _ _ _ _|_ _ _ _|* las- séz, es-|tre las- sez _ _|_|
 d2 d2 B2 G2 | G2 c2 A2 d2 | z4 d2 d2 | B2 G2 G2 A2- | AFGA B2 A2- | AG G4 F2 | G4 z4 | %30
w: plus tost sont mors|que par dis- cord,|plus tost|sont mors que par|_ _ _ _ dis- cord|_ _ def- *|faitz,|
 d2 d2 B2 G2 | G2 c2 A2 d2 | z4 d2 d2 | B2 G2 G2 A2- | AFGA B2 A2- | AG G4 F2 | G8 |] %37
w: plus tost sont mors|que par dis- cord,|plus tost|sont mors que par|_ _ _ _ dis- cord|_ _ def- *|faitz.|
V:2
 g6 g2 | g4 e4 | z2 g4 g2 | g2 d4 f2- | f2 d3 e f2- | f2 e2 c2 f2- | fe d2 c2 d2- | d2 c2 d4 | %8
w: Trop plus|qu'heu- reux,|sont les|a- mantz par-||||* * faitz,|
 z2 d2 d4 | g4 g2 g2- | g2 g2 g2 d2- | d2 f4 d2 | d2 f4 e2 | c2 f3 e d2 | c2 d4 c2 | d4 z2 d2- | %16
w: qui sont|si bien da-|* mours en- tre|_ las- sez,|da- mours en-|tre las- * *||sez, que|
 d2 e2 f2 g2 | e2 d2 c2 c2 | d4 G2 d2 | d2 d2 g4 | a2 g3 fed | c2 g4 f2 | g3 f/e/ d4 | z4 g2 g2 | %24
w: sans ia- mais d'ay-|mer es- tre las-|sez, d'ay- mer|es- tre las-|||* * * sez|plus tost|
 e2 cc f2 d2 | g4 z4 | g2 g2 e2 cc | f2 d2 g2 c2 | e4 d2 z d | d2 B2 G4 | z4 g2 g2 | e2 cc f2 d2 | %32
w: sont mors que par dis-|cord,|plus tost sont mors que|par dis- cord def-|* faitz, plus|tost sont mors|plus tost|sont mors que par dis-|
 g4 z4 | g2 g2 e2 cc | f2 d2 g2 c2 | e4 d4 | d8 |] %37
w: cord,|plus tost sont mors que|par dis- * *|cord def-|faitz;|
V:3
 d8 | B4 c4 | d8 | z2 d2 d2 d2 | A2 B3 c d2 | c6 c2 | d2 cB A2 d2 | B2 AG A4 | G2 d2 B4 | c4 d4- | %10
w: Trop|plus qu'heu-|reux|sont les a-|mantz par- * *|faitz, sont|les _ _ _ a-|mantz par- * *|faitz, qui sont|si bien|
 d4 z2 d2 | d2 d2 A2 B2- | Bc d2 c4 | z2 c2 d2 cB | A2 d2 B2 AG | A4 G3 A | B2 G2 d4 | %17
w: _ da-|mours en- tre- las-|* * * sez,|da- mours _ _|_ en- tre _ _|_ las- *|* * sez,|
 z2 d2 e2 f2 | g2 e2 d3 e | f2 g3 f d2 | e4 d2 e2- | e2 d2 c4 | z2 d2 d2 B2 | G4 z4 | z8 | %25
w: que sans ia-|mais d'ay- mer _|_ e- * *|* stre las-|* * sez,|plus tost sont|mors,||
 z2 d2 d2 B2 | G2 G2 c2 A2 | dcBA G2 A2 | B2 c2 A4 | G2 d2 d2 B2 | G4 z4 | z8 | z2 d2 d2 B2 | %33
w: plus- tost sont|mors que par dis-|cord _ _ _ _ _|_ _ def-|faitz, plus tost sont|mors||que par que|
 G2 G2 c2 A2 | dcBA G2 A2 | B2 c2 A4 | G8 |] %37
w: par dis- cord _|_ _ _ _ _ _|* * def-|faitz.|
V:4
 G8 | G4 C4 | G4 z2 G2 | G2 G2 D3 E | F2 G3 FDE | FG A3 GFE | D3 E F2 D2 | G2 E2 D4 | G2 G2 G4 | %9
w: Trop|plus qu'heu-|reux sont|les a- mantz _|_ par- * * *||||faitz, qui sont|
 C4 G4 | z2 G2 G2 G2 | D3 E F2 G2- | GFDE FG A2- | AGFE D3 E | F2 D2 G2 E2 | D4 G4- | G4 z2 G2 | %17
w: si bien|da- mours en-|tre _ _ las-||||* sez,|_ que|
 A2 B2 c2 A2 | G3 A BABc | d2 G4 B2 | A2 c2 B2 c2- | c2 B2 A4 | G4 z2 d2 | d2 B2 G2 G2 | %24
w: sans ia- mais d'ay-|mer _ _ _ _ _|_ es- tre|las- * * *||sez, plus|tost sont mors que|
 c2 A2 dcBA | G4 z2 G2 | G2 E2 CC F2 | D2 G4 F2 | E2 C2 D4 | G4 z2 G2 | G2 E2 C2 C2 | c2 A2 dcBA | %32
w: par dis- cord _ _ _|_ plus|tost sont mors que _|par dis- cord|_ _ def-|faitz, plus|tost sont mors que|par dis- cord, _ _ _|
"^#" G4 z2 G2 | G2 E2 CC F2 | D2 G4 F2 | E2 C2 D4 | G8 |] %37
w: _ plus|ost sont mors que par|dis- cord _|_ _ def-|faitz.|

